svg/UnitedNations-Flags/flag-ir.svg

<?xml version="1.0" encoding="UTF-8" standalone="no"?>
<!-- Created with Inkscape (http://www.inkscape.org/) --><svg height="256" id="svg2383" inkscape:output_extension="org.inkscape.output.svg.inkscape" inkscape:version="0.46" sodipodi:docname="Flag_of_Iran.svg" sodipodi:version="0.32" version="1.0" width="256" xmlns="http://www.w3.org/2000/svg" xmlns:cc="http://creativecommons.org/ns#" xmlns:dc="http://purl.org/dc/elements/1.1/" xmlns:inkscape="http://www.inkscape.org/namespaces/inkscape" xmlns:rdf="http://www.w3.org/1999/02/22-rdf-syntax-ns#" xmlns:sodipodi="http://sodipodi.sourceforge.net/DTD/sodipodi-0.dtd" xmlns:svg="http://www.w3.org/2000/svg" xmlns:xlink="http://www.w3.org/1999/xlink">
  <metadata>
    <rdf:RDF xmlns:cc="http://web.resource.org/cc/" xmlns:dc="http://purl.org/dc/elements/1.1/" xmlns:rdf="http://www.w3.org/1999/02/22-rdf-syntax-ns#">
      <cc:Work rdf:about="">
        <dc:title></dc:title>
        <dc:description></dc:description>
        <dc:subject>
          <rdf:Bag>
            <rdf:li>unsorted</rdf:li>
          </rdf:Bag>
        </dc:subject>
        <dc:publisher>
          <cc:Agent rdf:about="http://www.openclipart.org/">
            <dc:title>Open Clip Art Library, Source: Wikimedia Commons, Source: Wikimedia Commons, Source: Wikimedia Commons, Source: Wikimedia Commons</dc:title>
          </cc:Agent>
        </dc:publisher>
        <dc:creator>
          <cc:Agent>
            <dc:title></dc:title>
          </cc:Agent>
        </dc:creator>
        <dc:rights>
          <cc:Agent>
            <dc:title></dc:title>
          </cc:Agent>
        </dc:rights>
        <dc:date></dc:date>
        <dc:format>image/svg+xml</dc:format>
        <dc:type rdf:resource="http://purl.org/dc/dcmitype/StillImage"/>
        <cc:license rdf:resource="http://en.wikipedia.org/wiki/Public_domain"/>
        <dc:language>en</dc:language>
      </cc:Work>
    </rdf:RDF>
  </metadata>
  <sodipodi:namedview bordercolor="#666666" borderopacity="1.0" gridtolerance="10.0" guidetolerance="10.0" id="base" inkscape:current-layer="svg2383" inkscape:cx="770" inkscape:cy="440" inkscape:pageopacity="0.0" inkscape:pageshadow="2" inkscape:window-height="728" inkscape:window-width="950" inkscape:window-x="75" inkscape:window-y="156" inkscape:zoom="0.36298701" objecttolerance="10.0" pagecolor="#ffffff" showgrid="false"/>
  <defs id="defs2385">
    <inkscape:perspective id="perspective4458" inkscape:persp3d-origin="770 : 293.33333 : 1" inkscape:vp_x="0 : 440 : 1" inkscape:vp_y="0 : 1000 : 0" inkscape:vp_z="1540 : 440 : 1" sodipodi:type="inkscape:persp3d"/>
    <path d="M 0,0 L 1,0 L 1,-2 L 4,-2 L 4,0 L 9,0 L 9,-3 L 6,-3 L 6,-2 L 8,-2 L 8,-1 L 5,-1 L 5,-3 L 0,-3 L 0,0 z M 2,0 L 3,0 L 3,-1 L 2,-1 L 2,0 z M 0,-4 L 13,-4 L 13,-5 L 0,-5 L 0,-4 z M 13,0 L 10,0 L 10,-3 L 14,-3 L 14,-5 L 15,-5 L 15,-1 L 16,-1 L 16,-5 L 17,-5 L 17,-1 L 18,-1 L 18,-5 L 19,-5 L 19,0 L 14,0 L 14,-2 L 11,-2 L 11,-1 L 13,-1 L 13,0 z" id="Allahu_Akbar" style="fill:#ffffff" transform="translate(-9.5,0)"/>
    <path d="M 0,0 L 9,0 L 9,-2 L 0,-2 L 0,0 z M 10,0 L 19,0 L 19,-2 L 10,-2 L 10,0 z" id="lines" style="fill:#ffffff" transform="translate(-9.5,0)"/>
  </defs>
  <rect height="146.28572" id="rect2389" style="fill:#ffffff" width="256" x="0" y="54.714279"/>
  <rect height="48.872726" id="rect2391" style="fill:#239f40" width="256" x="0" y="54.714279"/>
  <rect height="48.872726" id="rect2395" style="fill:#da0000" width="256" x="0" y="152.12724"/>
  <path d="M 128,112.48919 L 125.72685,114.33613 L 126.15306,143.88708 L 128,146.01816 L 129.84694,143.88708 L 130.27315,114.33613 L 128,112.48919 z" id="path2399" style="fill:#da0000"/>
  <path d="M 132.5463,109.36361 C 132.08416,110.11323 131.32724,110.63312 130.4617,110.79541 C 129.59615,110.9577 128.70231,110.74733 128,110.21604 C 127.29769,110.74733 126.40385,110.9577 125.5383,110.79541 C 124.67276,110.63312 123.91584,110.11323 123.4537,109.36361 C 123.14929,110.54788 123.67895,111.78886 124.74468,112.38833 C 125.81041,112.98781 127.14601,112.79603 128,111.9209 C 128.85399,112.79603 130.18959,112.98781 131.25532,112.38833 C 132.32105,111.78886 132.85071,110.54788 132.5463,109.36361" id="path2401" style="fill:#da0000"/>
  <path d="M 133.68288,113.48369 C 138.03056,119.41099 138.44941,127.35221 134.74936,133.70397 C 131.0493,140.05572 123.93485,143.60862 116.63425,142.7505 C 124.51401,145.90266 133.51372,142.80599 137.78557,135.47264 C 142.05742,128.13929 140.31176,118.78318 133.68288,113.48369" id="path2403" style="fill:#da0000"/>
  <path d="M 122.31712,113.48369 C 117.96944,119.41099 117.55059,127.35221 121.25064,133.70397 C 124.9507,140.05572 132.06515,143.60862 139.36575,142.7505 C 131.48599,145.90266 122.48628,142.80599 118.21443,135.47264 C 113.94258,128.13929 115.68824,118.78318 122.31712,113.48369" id="path2405" style="fill:#da0000"/>
  <path d="M 135.81395,112.91541 C 139.98901,115.95242 142.70231,120.5983 143.29615,125.72683 C 143.88997,130.85537 142.31011,135.99835 138.93953,139.90907 C 144.20307,137.06263 147.20323,131.2983 146.51496,125.35413 C 145.82669,119.40995 141.58867,114.48373 135.81395,112.91541" id="path2407" style="fill:#da0000"/>
  <path d="M 120.18605,112.91541 C 116.01099,115.95242 113.29769,120.5983 112.70385,125.72683 C 112.11003,130.85537 113.68989,135.99835 117.06047,139.90907 C 111.79693,137.06263 108.79677,131.2983 109.48504,125.35413 C 110.17331,119.40995 114.41133,114.48373 120.18605,112.91541" id="path2409" style="fill:#da0000"/>
  <use height="880" id="use2412" transform="matrix(1.1636364,0,0,1.1636364,11.636364,101.25972)" width="1540" x="0" xlink:href="#Allahu_Akbar" y="0"/>
  <use height="880" id="use2414" transform="matrix(1.1636364,0,0,1.1636364,34.909091,101.25972)" width="1540" x="0" xlink:href="#Allahu_Akbar" y="0"/>
  <use height="880" id="use2416" transform="matrix(1.1636364,0,0,1.1636364,58.181818,101.25972)" width="1540" x="0" xlink:href="#Allahu_Akbar" y="0"/>
  <use height="880" id="use2418" transform="matrix(1.1636364,0,0,1.1636364,81.454545,101.25972)" width="1540" x="0" xlink:href="#Allahu_Akbar" y="0"/>
  <use height="880" id="use2420" transform="matrix(1.1636364,0,0,1.1636364,104.72727,101.25972)" width="1540" x="0" xlink:href="#Allahu_Akbar" y="0"/>
  <use height="880" id="use2422" transform="matrix(1.1636364,0,0,1.1636364,128,101.25972)" width="1540" x="0" xlink:href="#Allahu_Akbar" y="0"/>
  <use height="880" id="use2424" transform="matrix(1.1636364,0,0,1.1636364,151.27273,101.25972)" width="1540" x="0" xlink:href="#Allahu_Akbar" y="0"/>
  <use height="880" id="use2426" transform="matrix(1.1636364,0,0,1.1636364,174.54545,101.25972)" width="1540" x="0" xlink:href="#Allahu_Akbar" y="0"/>
  <use height="880" id="use2428" transform="matrix(1.1636364,0,0,1.1636364,197.81818,101.25972)" width="1540" x="0" xlink:href="#Allahu_Akbar" y="0"/>
  <use height="880" id="use2430" transform="matrix(1.1636364,0,0,1.1636364,221.09091,101.25972)" width="1540" x="0" xlink:href="#Allahu_Akbar" y="0"/>
  <use height="880" id="use2432" transform="matrix(1.1636364,0,0,1.1636364,244.36364,101.25972)" width="1540" x="0" xlink:href="#Allahu_Akbar" y="0"/>
  <use height="880" id="use2435" transform="matrix(1.1636364,0,0,1.1636364,11.636364,104.75063)" width="1540" x="0" xlink:href="#lines" y="0"/>
  <use height="880" id="use2437" transform="matrix(1.1636364,0,0,1.1636364,34.909091,104.75063)" width="1540" x="0" xlink:href="#lines" y="0"/>
  <use height="880" id="use2439" transform="matrix(1.1636364,0,0,1.1636364,58.181818,104.75063)" width="1540" x="0" xlink:href="#lines" y="0"/>
  <use height="880" id="use2441" transform="matrix(1.1636364,0,0,1.1636364,81.454545,104.75063)" width="1540" x="0" xlink:href="#lines" y="0"/>
  <use height="880" id="use2443" transform="matrix(1.1636364,0,0,1.1636364,104.72727,104.75063)" width="1540" x="0" xlink:href="#lines" y="0"/>
  <use height="880" id="use2445" transform="matrix(1.1636364,0,0,1.1636364,128,104.75063)" width="1540" x="0" xlink:href="#lines" y="0"/>
  <use height="880" id="use2447" transform="matrix(1.1636364,0,0,1.1636364,151.27273,104.75063)" width="1540" x="0" xlink:href="#lines" y="0"/>
  <use height="880" id="use2449" transform="matrix(1.1636364,0,0,1.1636364,174.54545,104.75063)" width="1540" x="0" xlink:href="#lines" y="0"/>
  <use height="880" id="use2451" transform="matrix(1.1636364,0,0,1.1636364,197.81818,104.75063)" width="1540" x="0" xlink:href="#lines" y="0"/>
  <use height="880" id="use2453" transform="matrix(1.1636364,0,0,1.1636364,221.09091,104.75063)" width="1540" x="0" xlink:href="#lines" y="0"/>
  <use height="880" id="use2455" transform="matrix(1.1636364,0,0,1.1636364,244.36364,104.75063)" width="1540" x="0" xlink:href="#lines" y="0"/>
  <use height="880" id="use2579" transform="matrix(1.1636364,0,0,1.1636364,11.636364,160.27271)" width="1540" x="0" xlink:href="#Allahu_Akbar" y="0"/>
  <use height="880" id="use2581" transform="matrix(1.1636364,0,0,1.1636364,34.909091,160.27271)" width="1540" x="0" xlink:href="#Allahu_Akbar" y="0"/>
  <use height="880" id="use2583" transform="matrix(1.1636364,0,0,1.1636364,58.181818,160.27271)" width="1540" x="0" xlink:href="#Allahu_Akbar" y="0"/>
  <use height="880" id="use2585" transform="matrix(1.1636364,0,0,1.1636364,81.454545,160.27271)" width="1540" x="0" xlink:href="#Allahu_Akbar" y="0"/>
  <use height="880" id="use2587" transform="matrix(1.1636364,0,0,1.1636364,104.72727,160.27271)" width="1540" x="0" xlink:href="#Allahu_Akbar" y="0"/>
  <use height="880" id="use2589" transform="matrix(1.1636364,0,0,1.1636364,128,160.27271)" width="1540" x="0" xlink:href="#Allahu_Akbar" y="0"/>
  <use height="880" id="use2591" transform="matrix(1.1636364,0,0,1.1636364,151.27273,160.27271)" width="1540" x="0" xlink:href="#Allahu_Akbar" y="0"/>
  <use height="880" id="use2593" transform="matrix(1.1636364,0,0,1.1636364,174.54545,160.27271)" width="1540" x="0" xlink:href="#Allahu_Akbar" y="0"/>
  <use height="880" id="use2595" transform="matrix(1.1636364,0,0,1.1636364,197.81818,160.27271)" width="1540" x="0" xlink:href="#Allahu_Akbar" y="0"/>
  <use height="880" id="use2597" transform="matrix(1.1636364,0,0,1.1636364,221.09091,160.27271)" width="1540" x="0" xlink:href="#Allahu_Akbar" y="0"/>
  <use height="880" id="use2599" transform="matrix(1.1636364,0,0,1.1636364,244.36364,160.27271)" width="1540" x="0" xlink:href="#Allahu_Akbar" y="0"/>
  <use height="880" id="use2544" transform="matrix(1.1636364,0,0,1.1636364,11.636364,153.29089)" width="1540" x="0" xlink:href="#lines" y="0"/>
  <use height="880" id="use2546" transform="matrix(1.1636364,0,0,1.1636364,34.909091,153.29089)" width="1540" x="0" xlink:href="#lines" y="0"/>
  <use height="880" id="use2548" transform="matrix(1.1636364,0,0,1.1636364,58.181818,153.29089)" width="1540" x="0" xlink:href="#lines" y="0"/>
  <use height="880" id="use2550" transform="matrix(1.1636364,0,0,1.1636364,81.454545,153.29089)" width="1540" x="0" xlink:href="#lines" y="0"/>
  <use height="880" id="use2552" transform="matrix(1.1636364,0,0,1.1636364,104.72727,153.29089)" width="1540" x="0" xlink:href="#lines" y="0"/>
  <use height="880" id="use2554" transform="matrix(1.1636364,0,0,1.1636364,128,153.29089)" width="1540" x="0" xlink:href="#lines" y="0"/>
  <use height="880" id="use2556" transform="matrix(1.1636364,0,0,1.1636364,151.27273,153.29089)" width="1540" x="0" xlink:href="#lines" y="0"/>
  <use height="880" id="use2558" transform="matrix(1.1636364,0,0,1.1636364,174.54545,153.29089)" width="1540" x="0" xlink:href="#lines" y="0"/>
  <use height="880" id="use2560" transform="matrix(1.1636364,0,0,1.1636364,197.81818,153.29089)" width="1540" x="0" xlink:href="#lines" y="0"/>
  <use height="880" id="use2562" transform="matrix(1.1636364,0,0,1.1636364,221.09091,153.29089)" width="1540" x="0" xlink:href="#lines" y="0"/>
  <use height="880" id="use2564" transform="matrix(1.1636364,0,0,1.1636364,244.36364,153.29089)" width="1540" x="0" xlink:href="#lines" y="0"/>
</svg>

<svg xmlns="http://www.w3.org/2000/svg" xmlns:xlink="http://www.w3.org/1999/xlink" viewBox="0 0 256 256"><defs><path d="m0 0h1v-2h3v2h5v-3h-3v1h2v1h-3v-2h-5v3m2 0h1v-1h-1v1m-2-4h13v-1h-13v1m13 4h-3v-3h4v-2h1v4h1v-4h1v4h1v-4h1v5h-5v-2h-3v1h2v1" id="0" transform="translate(-9.5)" fill="#fff"/><path d="m0 0h9v-2h-9v2m10 0h9v-2h-9v2" id="1" transform="translate(-9.5)" fill="#fff"/></defs><path fill="#fff" d="m0 54.714h256v146.29h-256z"/><path fill="#239f40" d="m0 54.714h256v48.873h-256z"/><g fill="#da0000"><path d="m0 152.13h256v48.873h-256z"/><path d="m128 112.49l-2.273 1.847.426 29.551 1.847 2.131 1.847-2.131.426-29.551-2.273-1.847"/><path d="m132.55 109.36c-.462.75-1.219 1.27-2.085 1.432-.866.162-1.759-.048-2.462-.579-.702.531-1.596.742-2.462.579-.866-.162-1.622-.682-2.085-1.432-.304 1.184.225 2.425 1.291 3.02 1.066.599 2.401.408 3.255-.467.854.875 2.19 1.067 3.255.467 1.066-.599 1.595-1.84 1.291-3.02"/><path d="m133.68 113.48c4.348 5.927 4.767 13.869 1.066 20.22-3.7 6.352-10.815 9.905-18.12 9.05 7.88 3.152 16.879.055 21.15-7.278 4.272-7.333 2.526-16.689-4.103-21.989"/><path d="m122.32 113.48c-4.348 5.927-4.767 13.869-1.066 20.22 3.7 6.352 10.815 9.905 18.12 9.05-7.88 3.152-16.879.055-21.15-7.278-4.272-7.333-2.526-16.689 4.103-21.989"/><path d="m135.81 112.92c4.175 3.037 6.888 7.683 7.482 12.811.594 5.129-.986 10.272-4.357 14.182 5.264-2.846 8.264-8.611 7.575-14.555-.688-5.944-4.926-10.87-10.701-12.439"/><path d="m120.19 112.92c-4.175 3.037-6.888 7.683-7.482 12.811-.594 5.129.986 10.272 4.357 14.182-5.264-2.846-8.264-8.611-7.575-14.555.688-5.944 4.926-10.87 10.701-12.439"/></g><use height="880" transform="matrix(1.16364 0 0 1.16364 11.636 101.26)" width="1540" xlink:href="#0"/><use height="880" transform="matrix(1.16364 0 0 1.16364 34.909 101.26)" width="1540" xlink:href="#0"/><use height="880" transform="matrix(1.16364 0 0 1.16364 58.18 101.26)" width="1540" xlink:href="#0"/><use height="880" transform="matrix(1.16364 0 0 1.16364 81.45 101.26)" width="1540" xlink:href="#0"/><use height="880" transform="matrix(1.16364 0 0 1.16364 104.73 101.26)" width="1540" xlink:href="#0"/><use height="880" transform="matrix(1.16364 0 0 1.16364 128 101.26)" width="1540" xlink:href="#0"/><use height="880" transform="matrix(1.16364 0 0 1.16364 151.27 101.26)" width="1540" xlink:href="#0"/><use height="880" transform="matrix(1.16364 0 0 1.16364 174.55 101.26)" width="1540" xlink:href="#0"/><use height="880" transform="matrix(1.16364 0 0 1.16364 197.82 101.26)" width="1540" xlink:href="#0"/><use height="880" transform="matrix(1.16364 0 0 1.16364 221.09 101.26)" width="1540" xlink:href="#0"/><use height="880" transform="matrix(1.16364 0 0 1.16364 244.36 101.26)" width="1540" xlink:href="#0"/><use height="880" transform="matrix(1.16364 0 0 1.16364 11.636 104.75)" width="1540" xlink:href="#1"/><use height="880" transform="matrix(1.16364 0 0 1.16364 34.909 104.75)" width="1540" xlink:href="#1"/><use height="880" transform="matrix(1.16364 0 0 1.16364 58.18 104.75)" width="1540" xlink:href="#1"/><use height="880" transform="matrix(1.16364 0 0 1.16364 81.45 104.75)" width="1540" xlink:href="#1"/><use height="880" transform="matrix(1.16364 0 0 1.16364 104.73 104.75)" width="1540" xlink:href="#1"/><use height="880" transform="matrix(1.16364 0 0 1.16364 128 104.75)" width="1540" xlink:href="#1"/><use height="880" transform="matrix(1.16364 0 0 1.16364 151.27 104.75)" width="1540" xlink:href="#1"/><use height="880" transform="matrix(1.16364 0 0 1.16364 174.55 104.75)" width="1540" xlink:href="#1"/><use height="880" transform="matrix(1.16364 0 0 1.16364 197.82 104.75)" width="1540" xlink:href="#1"/><use height="880" transform="matrix(1.16364 0 0 1.16364 221.09 104.75)" width="1540" xlink:href="#1"/><use height="880" transform="matrix(1.16364 0 0 1.16364 244.36 104.75)" width="1540" xlink:href="#1"/><use height="880" transform="matrix(1.16364 0 0 1.16364 11.636 160.27)" width="1540" xlink:href="#0"/><use height="880" transform="matrix(1.16364 0 0 1.16364 34.909 160.27)" width="1540" xlink:href="#0"/><use height="880" transform="matrix(1.16364 0 0 1.16364 58.18 160.27)" width="1540" xlink:href="#0"/><use height="880" transform="matrix(1.16364 0 0 1.16364 81.45 160.27)" width="1540" xlink:href="#0"/><use height="880" transform="matrix(1.16364 0 0 1.16364 104.73 160.27)" width="1540" xlink:href="#0"/><use height="880" transform="matrix(1.16364 0 0 1.16364 128 160.27)" width="1540" xlink:href="#0"/><use height="880" transform="matrix(1.16364 0 0 1.16364 151.27 160.27)" width="1540" xlink:href="#0"/><use height="880" transform="matrix(1.16364 0 0 1.16364 174.55 160.27)" width="1540" xlink:href="#0"/><use height="880" transform="matrix(1.16364 0 0 1.16364 197.82 160.27)" width="1540" xlink:href="#0"/><use height="880" transform="matrix(1.16364 0 0 1.16364 221.09 160.27)" width="1540" xlink:href="#0"/><use height="880" transform="matrix(1.16364 0 0 1.16364 244.36 160.27)" width="1540" xlink:href="#0"/><use height="880" transform="matrix(1.16364 0 0 1.16364 11.636 153.29)" width="1540" xlink:href="#1"/><use height="880" transform="matrix(1.16364 0 0 1.16364 34.909 153.29)" width="1540" xlink:href="#1"/><use height="880" transform="matrix(1.16364 0 0 1.16364 58.18 153.29)" width="1540" xlink:href="#1"/><use height="880" transform="matrix(1.16364 0 0 1.16364 81.45 153.29)" width="1540" xlink:href="#1"/><use height="880" transform="matrix(1.16364 0 0 1.16364 104.73 153.29)" width="1540" xlink:href="#1"/><use height="880" transform="matrix(1.16364 0 0 1.16364 128 153.29)" width="1540" xlink:href="#1"/><use height="880" transform="matrix(1.16364 0 0 1.16364 151.27 153.29)" width="1540" xlink:href="#1"/><use height="880" transform="matrix(1.16364 0 0 1.16364 174.55 153.29)" width="1540" xlink:href="#1"/><use height="880" transform="matrix(1.16364 0 0 1.16364 197.82 153.29)" width="1540" xlink:href="#1"/><use height="880" transform="matrix(1.16364 0 0 1.16364 221.09 153.29)" width="1540" xlink:href="#1"/><use height="880" transform="matrix(1.16364 0 0 1.16364 244.36 153.29)" width="1540" xlink:href="#1"/></svg>
